aliba_games/img/logo.svg

<svg width="150" height="20" viewBox="0 0 150 20" fill="none" xmlns="http://www.w3.org/2000/svg">
<path d="M11.928 15.808H5.256L4.152 19H0.624L6.648 2.224H10.56L16.584 19H13.032L11.928 15.808ZM11.016 13.12L8.592 6.112L6.168 13.12H11.016ZM22.1957 1.24V19H18.8357V1.24H22.1957ZM27.2194 4.12C26.6274 4.12 26.1314 3.936 25.7314 3.568C25.3474 3.184 25.1554 2.712 25.1554 2.152C25.1554 1.592 25.3474 1.128 25.7314 0.759999C26.1314 0.375999 26.6274 0.183999 27.2194 0.183999C27.8114 0.183999 28.2994 0.375999 28.6834 0.759999C29.0834 1.128 29.2834 1.592 29.2834 2.152C29.2834 2.712 29.0834 3.184 28.6834 3.568C28.2994 3.936 27.8114 4.12 27.2194 4.12ZM28.8754 5.704V19H25.5154V5.704H28.8754ZM35.5551 7.648C35.9871 7.008 36.5791 6.488 37.3311 6.088C38.0991 5.688 38.9711 5.488 39.9471 5.488C41.0831 5.488 42.1071 5.768 43.0191 6.328C43.9471 6.888 44.6751 7.688 45.2031 8.728C45.7471 9.752 46.0191 10.944 46.0191 12.304C46.0191 13.664 45.7471 14.872 45.2031 15.928C44.6751 16.968 43.9471 17.776 43.0191 18.352C42.1071 18.928 41.0831 19.216 39.9471 19.216C38.9551 19.216 38.0831 19.024 37.3311 18.64C36.5951 18.24 36.0031 17.728 35.5551 17.104V19H32.1951V1.24H35.5551V7.648ZM42.5871 12.304C42.5871 11.504 42.4191 10.816 42.0831 10.24C41.7631 9.648 41.3311 9.2 40.7871 8.896C40.2591 8.592 39.6831 8.44 39.0591 8.44C38.4511 8.44 37.8751 8.6 37.3311 8.92C36.8031 9.224 36.3711 9.672 36.0351 10.264C35.7151 10.856 35.5551 11.552 35.5551 12.352C35.5551 13.152 35.7151 13.848 36.0351 14.44C36.3711 15.032 36.8031 15.488 37.3311 15.808C37.8751 16.112 38.4511 16.264 39.0591 16.264C39.6831 16.264 40.2591 16.104 40.7871 15.784C41.3311 15.464 41.7631 15.008 42.0831 14.416C42.4191 13.824 42.5871 13.12 42.5871 12.304ZM47.5967 12.304C47.5967 10.96 47.8607 9.768 48.3887 8.728C48.9327 7.688 49.6607 6.888 50.5727 6.328C51.5007 5.768 52.5327 5.488 53.6687 5.488C54.6607 5.488 55.5247 5.688 56.2607 6.088C57.0127 6.488 57.6127 6.992 58.0607 7.6V5.704H61.4447V19H58.0607V17.056C57.6287 17.68 57.0287 18.2 56.2607 18.616C55.5087 19.016 54.6367 19.216 53.6447 19.216C52.5247 19.216 51.5007 18.928 50.5727 18.352C49.6607 17.776 48.9327 16.968 48.3887 15.928C47.8607 14.872 47.5967 13.664 47.5967 12.304ZM58.0607 12.352C58.0607 11.536 57.9007 10.84 57.5807 10.264C57.2607 9.672 56.8287 9.224 56.2847 8.92C55.7407 8.6 55.1567 8.44 54.5327 8.44C53.9087 8.44 53.3327 8.592 52.8047 8.896C52.2767 9.2 51.8447 9.648 51.5087 10.24C51.1887 10.816 51.0287 11.504 51.0287 12.304C51.0287 13.104 51.1887 13.808 51.5087 14.416C51.8447 15.008 52.2767 15.464 52.8047 15.784C53.3487 16.104 53.9247 16.264 54.5327 16.264C55.1567 16.264 55.7407 16.112 56.2847 15.808C56.8287 15.488 57.2607 15.04 57.5807 14.464C57.9007 13.872 58.0607 13.168 58.0607 12.352Z" fill="#B94FE6"/>
<path d="M76.3903 7.288C76.0063 6.584 75.4783 6.048 74.8063 5.68C74.1343 5.312 73.3503 5.128 72.4543 5.128C71.4623 5.128 70.5823 5.352 69.8143 5.8C69.0463 6.248 68.4463 6.888 68.0143 7.72C67.5823 8.552 67.3663 9.512 67.3663 10.6C67.3663 11.72 67.5823 12.696 68.0143 13.528C68.4623 14.36 69.0783 15 69.8623 15.448C70.6463 15.896 71.5583 16.12 72.5983 16.12C73.8783 16.12 74.9263 15.784 75.7423 15.112C76.5583 14.424 77.0943 13.472 77.3503 12.256H71.5903V9.688H80.6623V12.616C80.4383 13.784 79.9583 14.864 79.2223 15.856C78.4863 16.848 77.5343 17.648 76.3663 18.256C75.2143 18.848 73.9183 19.144 72.4783 19.144C70.8623 19.144 69.3983 18.784 68.0863 18.064C66.7903 17.328 65.7663 16.312 65.0143 15.016C64.2783 13.72 63.9103 12.248 63.9103 10.6C63.9103 8.952 64.2783 7.48 65.0143 6.184C65.7663 4.872 66.7903 3.856 68.0863 3.136C69.3983 2.4 70.8543 2.032 72.4543 2.032C74.3423 2.032 75.9823 2.496 77.3743 3.424C78.7663 4.336 79.7263 5.624 80.2543 7.288H76.3903ZM82.2842 12.304C82.2842 10.96 82.5482 9.768 83.0762 8.728C83.6202 7.688 84.3482 6.888 85.2602 6.328C86.1882 5.768 87.2202 5.488 88.3562 5.488C89.3482 5.488 90.2122 5.688 90.9482 6.088C91.7002 6.488 92.3002 6.992 92.7482 7.6V5.704H96.1322V19H92.7482V17.056C92.3162 17.68 91.7162 18.2 90.9482 18.616C90.1962 19.016 89.3242 19.216 88.3322 19.216C87.2122 19.216 86.1882 18.928 85.2602 18.352C84.3482 17.776 83.6202 16.968 83.0762 15.928C82.5482 14.872 82.2842 13.664 82.2842 12.304ZM92.7482 12.352C92.7482 11.536 92.5882 10.84 92.2682 10.264C91.9482 9.672 91.5162 9.224 90.9722 8.92C90.4282 8.6 89.8442 8.44 89.2202 8.44C88.5962 8.44 88.0202 8.592 87.4922 8.896C86.9642 9.2 86.5322 9.648 86.1962 10.24C85.8762 10.816 85.7162 11.504 85.7162 12.304C85.7162 13.104 85.8762 13.808 86.1962 14.416C86.5322 15.008 86.9642 15.464 87.4922 15.784C88.0362 16.104 88.6122 16.264 89.2202 16.264C89.8442 16.264 90.4282 16.112 90.9722 15.808C91.5162 15.488 91.9482 15.04 92.2682 14.464C92.5882 13.872 92.7482 13.168 92.7482 12.352ZM115.926 5.512C117.558 5.512 118.87 6.016 119.862 7.024C120.87 8.016 121.374 9.408 121.374 11.2V19H118.014V11.656C118.014 10.616 117.75 9.824 117.222 9.28C116.694 8.72 115.974 8.44 115.062 8.44C114.15 8.44 113.422 8.72 112.878 9.28C112.35 9.824 112.086 10.616 112.086 11.656V19H108.726V11.656C108.726 10.616 108.462 9.824 107.934 9.28C107.406 8.72 106.686 8.44 105.774 8.44C104.846 8.44 104.11 8.72 103.566 9.28C103.038 9.824 102.774 10.616 102.774 11.656V19H99.4138V5.704H102.774V7.312C103.206 6.752 103.758 6.312 104.43 5.992C105.118 5.672 105.87 5.512 106.686 5.512C107.726 5.512 108.654 5.736 109.47 6.184C110.286 6.616 110.918 7.24 111.366 8.056C111.798 7.288 112.422 6.672 113.238 6.208C114.07 5.744 114.966 5.512 115.926 5.512ZM136.922 12.064C136.922 12.544 136.89 12.976 136.826 13.36H127.106C127.186 14.32 127.522 15.072 128.114 15.616C128.706 16.16 129.434 16.432 130.298 16.432C131.546 16.432 132.434 15.896 132.962 14.824H136.586C136.202 16.104 135.466 17.16 134.378 17.992C133.29 18.808 131.954 19.216 130.37 19.216C129.09 19.216 127.938 18.936 126.914 18.376C125.906 17.8 125.114 16.992 124.538 15.952C123.978 14.912 123.698 13.712 123.698 12.352C123.698 10.976 123.978 9.768 124.538 8.728C125.098 7.688 125.882 6.888 126.89 6.328C127.898 5.768 129.058 5.488 130.37 5.488C131.634 5.488 132.762 5.76 133.754 6.304C134.762 6.848 135.538 7.624 136.082 8.632C136.642 9.624 136.922 10.768 136.922 12.064ZM133.442 11.104C133.426 10.24 133.114 9.552 132.506 9.04C131.898 8.512 131.154 8.248 130.274 8.248C129.442 8.248 128.738 8.504 128.162 9.016C127.602 9.512 127.258 10.208 127.13 11.104H133.442ZM144.463 19.216C143.375 19.216 142.399 19.024 141.535 18.64C140.671 18.24 139.983 17.704 139.471 17.032C138.975 16.36 138.703 15.616 138.655 14.8H142.039C142.103 15.312 142.351 15.736 142.783 16.072C143.231 16.408 143.783 16.576 144.439 16.576C145.079 16.576 145.575 16.448 145.927 16.192C146.295 15.936 146.479 15.608 146.479 15.208C146.479 14.776 146.255 14.456 145.807 14.248C145.375 14.024 144.679 13.784 143.719 13.528C142.727 13.288 141.911 13.04 141.271 12.784C140.647 12.528 140.103 12.136 139.639 11.608C139.191 11.08 138.967 10.368 138.967 9.472C138.967 8.736 139.175 8.064 139.591 7.456C140.023 6.848 140.631 6.368 141.415 6.016C142.215 5.664 143.151 5.488 144.223 5.488C145.807 5.488 147.071 5.888 148.015 6.688C148.959 7.472 149.479 8.536 149.575 9.88H146.359C146.311 9.352 146.087 8.936 145.687 8.632C145.303 8.312 144.783 8.152 144.127 8.152C143.519 8.152 143.047 8.264 142.711 8.488C142.391 8.712 142.231 9.024 142.231 9.424C142.231 9.872 142.455 10.216 142.903 10.456C143.351 10.68 144.047 10.912 144.991 11.152C145.951 11.392 146.743 11.64 147.367 11.896C147.991 12.152 148.527 12.552 148.975 13.096C149.439 13.624 149.679 14.328 149.695 15.208C149.695 15.976 149.479 16.664 149.047 17.272C148.631 17.88 148.023 18.36 147.223 18.712C146.439 19.048 145.519 19.216 144.463 19.216Z" fill="white"/>
</svg>

<svg width="150" height="20" fill="none" xmlns="http://www.w3.org/2000/svg"><path d="M11.928 15.808H5.256L4.152 19H.624L6.648 2.224h3.912L16.584 19h-3.552l-1.104-3.192zm-.912-2.688L8.592 6.112 6.168 13.12h4.848zm11.18-11.88V19h-3.36V1.24h3.36zm5.023 2.88c-.592 0-1.088-.184-1.488-.552a1.925 1.925 0 0 1-.576-1.416c0-.56.192-1.024.576-1.392.4-.384.896-.576 1.488-.576s1.08.192 1.464.576c.4.368.6.832.6 1.392 0 .56-.2 1.032-.6 1.416-.384.368-.872.552-1.464.552zm1.656 1.584V19h-3.36V5.704h3.36zm6.68 1.944c.432-.64 1.024-1.16 1.776-1.56.768-.4 1.64-.6 2.616-.6 1.136 0 2.16.28 3.072.84.928.56 1.656 1.36 2.184 2.4.544 1.024.816 2.216.816 3.576 0 1.36-.272 2.568-.816 3.624-.528 1.04-1.256 1.848-2.184 2.424-.912.576-1.936.864-3.072.864-.992 0-1.864-.192-2.616-.576-.736-.4-1.328-.912-1.776-1.536V19h-3.36V1.24h3.36v6.408zm7.032 4.656c0-.8-.168-1.488-.504-2.064-.32-.592-.752-1.04-1.296-1.344a3.403 3.403 0 0 0-1.728-.456c-.608 0-1.184.16-1.728.48-.528.304-.96.752-1.296 1.344-.32.592-.48 1.288-.48 2.088s.16 1.496.48 2.088c.336.592.768 1.048 1.296 1.368a3.49 3.49 0 0 0 1.728.456c.624 0 1.2-.16 1.728-.48a3.45 3.45 0 0 0 1.296-1.368c.336-.592.504-1.296.504-2.112zm5.01 0c0-1.344.264-2.536.792-3.576.544-1.04 1.272-1.84 2.184-2.4.928-.56 1.96-.84 3.096-.84.992 0 1.856.2 2.592.6.752.4 1.352.904 1.8 1.512V5.704h3.384V19H58.06v-1.944c-.432.624-1.032 1.144-1.8 1.56-.752.4-1.624.6-2.616.6a5.71 5.71 0 0 1-3.072-.864c-.912-.576-1.64-1.384-2.184-2.424-.528-1.056-.792-2.264-.792-3.624zm10.464.048c0-.816-.16-1.512-.48-2.088-.32-.592-.752-1.04-1.296-1.344a3.397 3.397 0 0 0-1.752-.48c-.624 0-1.2.152-1.728.456-.528.304-.96.752-1.296 1.344-.32.576-.48 1.264-.48 2.064s.16 1.504.48 2.112c.336.592.768 1.048 1.296 1.368.544.32 1.12.48 1.728.48.624 0 1.208-.152 1.752-.456.544-.32.976-.768 1.296-1.344.32-.592.48-1.296.48-2.112z" fill="#B94FE6"/><path d="M76.39 7.288a3.933 3.933 0 0 0-1.584-1.608c-.672-.368-1.456-.552-2.352-.552-.992 0-1.872.224-2.64.672-.768.448-1.368 1.088-1.8 1.92-.432.832-.648 1.792-.648 2.88 0 1.12.216 2.096.648 2.928a4.751 4.751 0 0 0 1.848 1.92c.784.448 1.696.672 2.736.672 1.28 0 2.328-.336 3.144-1.008.816-.688 1.352-1.64 1.608-2.856h-5.76V9.688h9.072v2.928a7.87 7.87 0 0 1-1.44 3.24c-.736.992-1.688 1.792-2.856 2.4-1.152.592-2.448.888-3.888.888-1.616 0-3.08-.36-4.392-1.08a8.143 8.143 0 0 1-3.072-3.048c-.736-1.296-1.104-2.768-1.104-4.416 0-1.648.368-3.12 1.104-4.416a7.92 7.92 0 0 1 3.072-3.048c1.312-.736 2.768-1.104 4.368-1.104 1.888 0 3.528.464 4.92 1.392 1.392.912 2.352 2.2 2.88 3.864H76.39zm5.894 5.016c0-1.344.264-2.536.792-3.576.544-1.04 1.272-1.84 2.184-2.4.928-.56 1.96-.84 3.096-.84.992 0 1.856.2 2.592.6.752.4 1.352.904 1.8 1.512V5.704h3.384V19h-3.384v-1.944c-.432.624-1.032 1.144-1.8 1.56-.752.4-1.624.6-2.616.6a5.71 5.71 0 0 1-3.072-.864c-.912-.576-1.64-1.384-2.184-2.424-.528-1.056-.792-2.264-.792-3.624zm10.464.048c0-.816-.16-1.512-.48-2.088-.32-.592-.752-1.04-1.296-1.344a3.397 3.397 0 0 0-1.752-.48c-.624 0-1.2.152-1.728.456-.528.304-.96.752-1.296 1.344-.32.576-.48 1.264-.48 2.064s.16 1.504.48 2.112c.336.592.768 1.048 1.296 1.368.544.32 1.12.48 1.728.48.624 0 1.208-.152 1.752-.456.544-.32.976-.768 1.296-1.344.32-.592.48-1.296.48-2.112zm23.178-6.84c1.632 0 2.944.504 3.936 1.512 1.008.992 1.512 2.384 1.512 4.176V19h-3.36v-7.344c0-1.04-.264-1.832-.792-2.376-.528-.56-1.248-.84-2.16-.84-.912 0-1.64.28-2.184.84-.528.544-.792 1.336-.792 2.376V19h-3.36v-7.344c0-1.04-.264-1.832-.792-2.376-.528-.56-1.248-.84-2.16-.84-.928 0-1.664.28-2.208.84-.528.544-.792 1.336-.792 2.376V19h-3.36V5.704h3.36v1.608c.432-.56.984-1 1.656-1.32.688-.32 1.44-.48 2.256-.48 1.04 0 1.968.224 2.784.672a4.55 4.55 0 0 1 1.896 1.872c.432-.768 1.056-1.384 1.872-1.848a5.43 5.43 0 0 1 2.688-.696zm20.996 6.552c0 .48-.032.912-.096 1.296h-9.72c.08.96.416 1.712 1.008 2.256.592.544 1.32.816 2.184.816 1.248 0 2.136-.536 2.664-1.608h3.624c-.384 1.28-1.12 2.336-2.208 3.168-1.088.816-2.424 1.224-4.008 1.224-1.28 0-2.432-.28-3.456-.84a6.182 6.182 0 0 1-2.376-2.424c-.56-1.04-.84-2.24-.84-3.6 0-1.376.28-2.584.84-3.624a5.861 5.861 0 0 1 2.352-2.4c1.008-.56 2.168-.84 3.48-.84 1.264 0 2.392.272 3.384.816a5.63 5.63 0 0 1 2.328 2.328c.56.992.84 2.136.84 3.432zm-3.48-.96c-.016-.864-.328-1.552-.936-2.064-.608-.528-1.352-.792-2.232-.792-.832 0-1.536.256-2.112.768-.56.496-.904 1.192-1.032 2.088h6.312zm11.021 8.112c-1.088 0-2.064-.192-2.928-.576-.864-.4-1.552-.936-2.064-1.608a4.092 4.092 0 0 1-.816-2.232h3.384c.064.512.312.936.744 1.272.448.336 1 .504 1.656.504.64 0 1.136-.128 1.488-.384.368-.256.552-.584.552-.984 0-.432-.224-.752-.672-.96-.432-.224-1.128-.464-2.088-.72-.992-.24-1.808-.488-2.448-.744a4.351 4.351 0 0 1-1.632-1.176c-.448-.528-.672-1.24-.672-2.136 0-.736.208-1.408.624-2.016.432-.608 1.04-1.088 1.824-1.44.8-.352 1.736-.528 2.808-.528 1.584 0 2.848.4 3.792 1.2.944.784 1.464 1.848 1.56 3.192h-3.216c-.048-.528-.272-.944-.672-1.248-.384-.32-.904-.48-1.56-.48-.608 0-1.08.112-1.416.336-.32.224-.48.536-.48.936 0 .448.224.792.672 1.032.448.224 1.144.456 2.088.696.96.24 1.752.488 2.376.744.624.256 1.16.656 1.608 1.2.464.528.704 1.232.72 2.112 0 .768-.216 1.456-.648 2.064-.416.608-1.024 1.088-1.824 1.44-.784.336-1.704.504-2.76.504z" fill="#fff"/></svg>
